X:1
T:E  Major, C minor        Jacob Kimball, 1793
T:Isaac Watts, 1717 (Psalm 24, Part 2)                              
T:Pennsylvania
T:Transcribed from Kimball's Rural Harmony, 1793.
%%score [ 1 ( 2 3 ) 4 ]
L:1/8
Q:1/4=90
M:2/4
K:Eb
V:1 treble nm="Tr." snm="Tr."
V:2 treble-8 nm="T." snm="T."
V:3 treble-8 
V:4 bass nm="B." snm="B."
V:1
"^Rejoice,  ye  shining  worlds  on    high,  Behold  the   King    of    glo   –   ry      nigh!        Be – hold       the    King       of     glo   –   ry"!mf! B | %1
 B2 G2 | cB B2 | E2 B>A |{A} G3 e | e2 e2 | d>B e>c | f>d e>f | g>f ed | ef/e/ de | f=A Be | %11
 d>B c>B | %12
"^nigh!                      Re –joice,  ye     shining    worlds ______ on high, Be – hold     the   King _____    of   glo–ry   nigh!          Be  – hold ____  the" B4 | %13
 z2 z d | !wedge!e3 f | B3 d | (eG AB | c)d !fermata!ef | gd ef | Bc/d/ e d/c/ | B2 A2 | Gc =Bc | %22
 c=B cd | %23
"^King ____   of     glo – ry  nigh!                      Re –joice,    ye   shi    –       –       –    ning  worlds ___ on  high, Behold the King of glory nigh!" ed e d/c/ | %24
 c2 =B2 | c4 | z2 z d | ef gd | (eE FG | AB c)d | eb/a/ gf | g2 z a | ag fe | %33
 !fermata!e2 !fermata!d2 | !fermata!e4 || z4 | %36
"^Who can this King of glory be?         The migh  –   ty Lord,  the   Savior's   he, _____ The   migh     –       ty    Lord,  the Savior's he, ____     the" e2 e>e | %37
 e2 e2 | e2 e2 | e4 | z2 z e | ed eB | B2 z e | e2 d2 | ea gf | eb/a/ g f/e/ |{e} d3 e | g2 f2 | %48
 ef/d/ e d/c/ | %49
"^Savior's  he!              Ye heavenly gates,   your leaves display,       To     make     this     King    of       glo  – ry  way:     Laden with spoils from" B2 d2 | %50
 e4 || z2!f! z e | e2 e2 | e3 B | AG FE | B,2 z B, | CB, CD | ED EF | G2 =A2 | B4 || %60
[M:6/8] BBB B2 c/d/ | %61
"^earth  and  hell,          Laden with spoils  from  earth  and hell,   The Conqueror comes, The Conqueror comes with God to dwell." efe ed z | %62
 eee e2 f | gag gfB | efd eaf | gaf e2 e | e3 d3 | e3 z2 z || %68
[M:2/4]"^Raised from the dead, he goes be–fore;    He     o  – pens   heav'n's  e – ter –nal   door,  He   o–pens heav'n's  e  –  ter – nal   door,  To" E>F G>A | %69
 B>c d2 | eB cd | e3 e | cB cd | ed ef | gf ed | e2 z e | f2 B2 | e3 e | dc B=A | %79
 !fermata!B2!p! z B || %80
[M:6/8]"^give, to give his  saints a blest,  a  blest  a–bode,  To   give,  to  give  his saints  a  blest  a–bode,  Near their Redeemer and their God." BAG edc | %81
 B2 A Ged | cfe d2!f! B | efd efd | e2 B cAG |{!fermata!G} !fermata!F3!<(! BBB!<)! | B2 B Bc!ff!d | %87
 e3- e3 | %88
"^Near their Redeemer,   Near their Re–dee–mer  and    their        God."!<(! BGc Bed!<)! | %89
!>(! cBe cBe!>)! |!mf![Q:1/4=70] G3 F3 | E3- E3 |] %92
V:2
!mf! G | G2 G2 | AG G2 | G2 F2 |{F} E3 G | G2 G2 | F2 B2 | d>B c>d | e>d eB | B3 B | =Ac BA | %11
 F2 =A2 | B4 | z2 z A | !wedge!G3 F | F3 B | (GBcd | e)f !fermata!gd | (e B2) B | B3 A | G2 c2 | %21
 cA GG | G3 =B | c=B cd | e2 d2 | c4 | z2 z B | B3 B | (GEFG | AB c)d | ef ed | e2 z f | fe dc | %33
 !fermata!B2 !fermata!f2 | !fermata!e4 || z4 | B2 B>B | B2 B2 | B2 B2 | B4 | z2 z e | ed eB | %42
 B2 z B | c2 dB | ef ed | ed e=A | B3 B | B2 d2 | (e B2) A | G2 F2 | G4 || z2!f! z G | G2 G2 | %53
 G3 B | AG FE | B,2 z B, | CB, CD | ED EF | G2 =A2 | B4 ||[M:6/8] eee e2 A | GAG GF z | GGG GBd | %63
 efe ed z | z2"^The  Conqueror, Conqueror comes with God to  dwell." B efd | ed d/c/ B2 B | A3 F3 | %67
 G3 z2 z ||[M:2/4] E>F G>A | B2 A2 | G2 G2 | G3 G | AG AF | GF GA | BA GF | G2 z B | B2 A2 | %77
 GA Be | fe dc | !fermata!d2!p! z B ||[M:6/8] GFE cBA | G2 F EcB | =AFA B2!f! G | GFA GFA | %84
 G2 F E2 [Ee] |{!fermata!e} !fermata!d3!<(! ddd!<)! | e2 e Bc!ff!d | e3- e3 |!<(! eBe dcB!<)! | %89
!>(! AGG AGF!>)! |!mf! E3 (B2 A) | G3- G3 |] %92
V:3
 x | x4 | x4 | x4 | x4 | x4 | x4 | x4 | x4 | x4 | x4 | x4 | x4 | x4 | x4 | x4 | x4 | x4 | x4 | x4 | %20
 x4 | x4 | x4 | x4 | x4 | x4 | x4 | x4 | x4 | x4 | x4 | x4 | x4 | x4 | x4 || x4 | x4 | x4 | x4 | %39
 x4 | x4 | x4 | x4 | x4 | x4 | x4 | x4 | x4 | x4 | x4 | x4 || x4 | x4 | x4 | x4 | x4 | x4 | x4 | %58
 x4 | x4 ||[M:6/8] x6 | x6 | x6 | x6 | x6 | x6 | x6 | x6 ||[M:2/4] x4 | x4 | x4 | x4 | x4 | x4 | %74
 x4 | x4 | x4 | x4 | x4 | x4 ||[M:6/8] x6 | x6 | x6 | x6 | x6 |{E} D3 x x2 | x6 | x6 | x6 | x6 | %90
 x6 | x6 |] %92
V:4
!mf! E, | E,2 E,2 | A,E, E,2 | G,2 B,,2 | E,3 E, | E,2 E,2 | B,2 B,2 | B,2 B,2 | B,2 B,2 | %9
 E,D,/E,/ F,F, | F,2 F,2 | F,2 F,2 | (B,,3 C | B,A, G,)F, | !wedge!E,3 D, | D,3 B,, | (E,G,A,B, | %17
 C)B, !fermata!E,B,, | E,B, G,B, | D,B,, E,F, | G,2 A,2 | E,F, G,G, | C,3 =B,, | (G,, C,2) =B,, | %24
 C,2 G,2 | C,3 (C | B,A, G,)F, | E,2 B,,2 | (E,2 F,G, | A,B, C)B, | E,D, E,B, | E2 z B, | %32
 B,B, B,B, | !fermata!B,2 !fermata!B,2 | !fermata!E,4 || z4 | G,2 G,>G, | G,2 G,2 | G,2 G,2 | G,4 | %40
 z2 z E | ED EB, | B,2 z G, | A,2 B,2 | E,D, E,B,, | E,2 C,2 | B,,3 E, | B,2 B,,2 | E,B,/A,/ G,A, | %49
 B,2 B,,2 | E,4 || z2!f! z E, | E,2 E,2 | E,3 B, | A,G, F,E, | B,,2 z B,, | C,B,, C,D, | %57
 E,D, E,F, | G,2 =A,2 | B,4 ||[M:6/8] E,B,A, G,2 F, | E,D,E, B,,2 z | E,E,E, E,2 B, | EDE B,2 z | %64
 z2 z z2"^The  Conqueror comes  with God  to  dwell." B, | E,F,D, C,F,G, | A,3 B,3 | E,3 z2 z || %68
[M:2/4] E,>F, G,>A, | B,2 B,,2 | E,2 E,2 | E,3 E, | E,2 E,2 | E,2 E,2 | B,,2 B,,2 | E,2 E,2 | %76
 B,2 D,2 | E,F, G,=A, | B,2 F,2 | !fermata!B,2 z2 ||[M:6/8] z6 | z6 | z2 z z2!f! E, | %83
 E,B,B,, E,B,B,, | E,2 D, C,2 E, | !fermata!B,,3!<(! B,,B,,B,,!<)! | E,2 E, B,C!ff!D | E3- E3 | %88
!<(! E,E,E, B,2 B,,!<)! |!>(! C,D,E, F,G,A,!>)! |!mf! B,3 B,,3 | E,3- E,3 |] %92

